X: 1242
T: The Bush in Bloom
M:C|
L:1/8
R:Reel
B:O'Neill's 1242
N:Collected by McFadden
Z:Transcribed by Trish O'Neil
K:G
ge||d2(BG) AGEF|G2(Bd) e(f{a}g)e|d2(BG) AGEd|eaag (fd)(e^c)|
d2(BG) AGEF|G2(Bd) e(f{a}g)e|d2(BG) AGEF|GBAF"end"G2||
(ef)g2(fg) Bgdg|g2bg agef|g2(dg) Bgdg|egfag2(ga)|
b>g (3.g.g.g agef|gage dega|bgaf gfed|edef gage||


